X: 24686
T: MacLeod's Farewell
R: reel
M: 4/4
K: Emajor
|:A|G2cG BGFG|(3EFE EF GBce|f2ge (3fgf ec|B2ef ecBA|
G2cG BGFG|(3EFE EF GBce|f2ge (3fgf ec|Bcef e3/2:|
|:c|~B3g fege|~B3g fege|BceB ceBA|(3GAG FE DcBA|
G2cG BGFG|(3EFE EF GBce|f2ge (3fgf ec|Bcef e3/2:|
~B3g fege|~B3g fege|BceB ceBc|ecBG FGEF|
G2cG BGFG|(3EFE EF GBce|f2ge (3fgf ec|Bcef e3/2||

